REACT_GL/src/assets/ArrowBack.svg

<svg fill="none" height="16" viewBox="0 0 41 16" width="41" xmlns="http://www.w3.org/2000/svg"><path d="m.292893 7.29289c-.3905241.39053-.3905241 1.02369 0 1.41422l6.363957 6.36399c.39053.3905 1.02369.3905 1.41422 0 .39052-.3906.39052-1.0237 0-1.4142l-5.65686-5.6569 5.65686-5.65685c.39052-.39053.39052-1.02369 0-1.414218-.39053-.390524-1.02369-.390524-1.41422 0zm40.707107-.29289h-40v2h40z" fill="#000"/></svg>

<svg width="41" height="16" viewBox="0 0 41 16" fill="none" xmlns="http://www.w3.org/2000/svg">
<path d="M0.292893 7.29289C-0.0976311 7.68342 -0.0976311 8.31658 0.292893 8.70711L6.65685 15.0711C7.04738 15.4616 7.68054 15.4616 8.07107 15.0711C8.46159 14.6805 8.46159 14.0474 8.07107 13.6569L2.41421 8L8.07107 2.34315C8.46159 1.95262 8.46159 1.31946 8.07107 0.928932C7.68054 0.538408 7.04738 0.538408 6.65685 0.928932L0.292893 7.29289ZM41 7L1 7V9L41 9V7Z" fill="black"/>
</svg>
